packages/katcn/src/icons/svg/hurricane-solid.svg

<svg width="24" height="25" viewBox="0 0 24 25" fill="none" xmlns="http://www.w3.org/2000/svg">
<path d="M14.1 3.96802C9.5 3.96802 5.7 7.60847 5.3 12.2602C5.3 12.4624 5.3 12.7658 5.3 12.968C5.3 16.5073 8 19.4399 11.4 19.7433C10.9 19.8444 10.4 19.9455 9.9 19.9455C6.1 19.8444 3 16.7096 3 12.968C3 12.3613 2.6 11.9568 2 11.9568C1.4 11.9568 1 12.3613 1 12.968C1 17.9231 5 21.968 9.9 21.968C14.6 21.968 18.4 18.3276 18.7 13.6759C18.7 13.4736 18.7 13.1703 18.7 12.968C18.7 9.42869 16 6.49611 12.6 6.19274C13.1 6.09161 13.6 5.99049 14.1 5.99049C17.9 5.99049 21 9.12532 21 12.968C21 13.5748 21.4 13.9793 22 13.9793C22.6 13.9793 23 13.5748 23 12.968C23 8.01296 19 3.96802 14.1 3.96802Z" fill="black"/>
<path d="M12 14.268C12.7732 14.268 13.4 13.6412 13.4 12.868C13.4 12.0948 12.7732 11.468 12 11.468C11.2268 11.468 10.6 12.0948 10.6 12.868C10.6 13.6412 11.2268 14.268 12 14.268Z" fill="white"/>
</svg>

<svg xmlns="http://www.w3.org/2000/svg" fill="none" viewBox="0 0 24 25"><path fill="#000" d="M14.1 3.968c-4.6 0-8.4 3.64-8.8 8.292v.708c0 3.54 2.7 6.472 6.1 6.775-.5.101-1 .203-1.5.203C6.1 19.844 3 16.71 3 12.968c0-.607-.4-1.011-1-1.011s-1 .404-1 1.011c0 4.955 4 9 8.9 9 4.7 0 8.5-3.64 8.8-8.292v-.708c0-3.54-2.7-6.472-6.1-6.775.5-.101 1-.203 1.5-.203 3.8 0 6.9 3.135 6.9 6.978 0 .607.4 1.011 1 1.011s1-.404 1-1.011c0-4.955-4-9-8.9-9"/><path fill="#fff" d="M12 14.268a1.4 1.4 0 1 0 0-2.8 1.4 1.4 0 0 0 0 2.8"/></svg>
